X:61
T:JACKP- Jack the Piper [Over the hills and far away]
S:Riley's Flute Melodies, II, #352 (1820)
L:1/4
M:C
J:2#E
K:Edorian
(d/e/)(f/e/) (d/e/)(f/e/)|dBB3/2A/|(d/e/)(f/e/)
(d/e/)(f/e/)|\
geez|(d/e/)(f/e/) (d/e/)(f/e/)|dBg3/2B/|B(A/G/)Af|gee2|\
(d/e/)(f/e/) (d/e/)(f/e/)|dBB2|(d/e/)(f/e/)(d/e/)(f/e/)|\
gee2|(d/e/)(f/e/) (d/e/)(f/e/)|dBg3/2B/|B(A/G/)Af|gee3/2g/|\
a3/2g/fe|dBB2|a3/2g/fe/d/|gee2|a3/2g/fe|dBg2|BA/G/Af|gee2|]

